docs/assets/misc/circle_ci_logo.svg

<svg version="1.1" xmlns="http://www.w3.org/2000/svg" xmlns:xlink="http://www.w3.org/1999/xlink" viewBox="0 0 103.8 105.2"><path d="m38.6 52.6c0-6.9 5.6-12.5 12.5-12.5s12.5 5.6 12.5 12.5-5.6 12.5-12.5 12.5c-6.9 0.1-12.5-5.6-12.5-12.5zm12.5-52.6c-24.6 0-45.2 16.8-51 39.6 0 0.2-0.1 0.3-0.1 0.5 0 1.4 1.1 2.5 2.5 2.5h21.2c1 0 1.9-0.6 2.3-1.5 4.4-9.5 13.9-16.1 25.1-16.1 15.2 0 27.6 12.4 27.6 27.6s-12.4 27.6-27.6 27.6c-11.1 0-20.7-6.6-25.1-16.1-0.4-0.9-1.3-1.5-2.3-1.5h-21.2c-1.4 0-2.5 1.1-2.5 2.5 0 0.2 0 0.3 0.1 0.5 5.8 22.8 26.4 39.6 51 39.6 29.1 0 52.7-23.6 52.7-52.7 0-29-23.6-52.5-52.7-52.5z" fill="#343434"/></svg>

<?xml version="1.0" encoding="UTF-8" standalone="no"?>
<!-- Generator: Adobe Illustrator 18.1.1, SVG Export Plug-In . SVG Version: 6.00 Build 0)  -->

<svg
   xmlns:dc="http://purl.org/dc/elements/1.1/"
   xmlns:cc="http://creativecommons.org/ns#"
   xmlns:rdf="http://www.w3.org/1999/02/22-rdf-syntax-ns#"
   xmlns:svg="http://www.w3.org/2000/svg"
   xmlns="http://www.w3.org/2000/svg"
   xmlns:sodipodi="http://sodipodi.sourceforge.net/DTD/sodipodi-0.dtd"
   xmlns:inkscape="http://www.inkscape.org/namespaces/inkscape"
   version="1.1"
   id="Layer_1"
   x="0px"
   y="0px"
   viewBox="0 0 103.8 105.2"
   enable-background="new 0 0 200 200"
   xml:space="preserve"
   inkscape:version="0.91 r13725"
   sodipodi:docname="logo-icon.svg"
   width="103.8"
   height="105.2"><metadata
     id="metadata13"><rdf:RDF><cc:Work
         rdf:about=""><dc:format>image/svg+xml</dc:format><dc:type
           rdf:resource="http://purl.org/dc/dcmitype/StillImage" /><dc:title></dc:title></cc:Work></rdf:RDF></metadata><defs
     id="defs11" /><sodipodi:namedview
     pagecolor="#ffffff"
     bordercolor="#666666"
     borderopacity="1"
     objecttolerance="10"
     gridtolerance="10"
     guidetolerance="10"
     inkscape:pageopacity="0"
     inkscape:pageshadow="2"
     inkscape:window-width="3070"
     inkscape:window-height="1752"
     id="namedview9"
     showgrid="false"
     fit-margin-top="0"
     fit-margin-left="0"
     fit-margin-right="0"
     fit-margin-bottom="0"
     inkscape:zoom="1.18"
     inkscape:cx="51.9"
     inkscape:cy="22.5"
     inkscape:window-x="130"
     inkscape:window-y="48"
     inkscape:window-maximized="1"
     inkscape:current-layer="Layer_1" /><path
     style="fill:#343434"
     inkscape:connector-curvature="0"
     id="path7"
     d="m 38.6,52.6 c 0,-6.9 5.6,-12.5 12.5,-12.5 6.9,0 12.5,5.6 12.5,12.5 0,6.9 -5.6,12.5 -12.5,12.5 C 44.2,65.2 38.6,59.5 38.6,52.6 Z M 51.1,0 C 26.5,0 5.9,16.8 0.1,39.6 0.1,39.8 0,39.9 0,40.1 c 0,1.4 1.1,2.5 2.5,2.5 l 21.2,0 c 1,0 1.9,-0.6 2.3,-1.5 l 0,0 C 30.4,31.6 39.9,25 51.1,25 66.3,25 78.7,37.4 78.7,52.6 78.7,67.8 66.3,80.2 51.1,80.2 40,80.2 30.4,73.6 26,64.1 l 0,0 c -0.4,-0.9 -1.3,-1.5 -2.3,-1.5 l -21.2,0 c -1.4,0 -2.5,1.1 -2.5,2.5 0,0.2 0,0.3 0.1,0.5 5.8,22.8 26.4,39.6 51,39.6 29.1,0 52.7,-23.6 52.7,-52.7 C 103.8,23.5 80.2,0 51.1,0 Z" /></svg>
